lib/brands/icons/ms-xbox.svg

<svg xmlns="http://www.w3.org/2000/svg" fill="none" aria-hidden="true" viewBox="0 0 48 48"><g id="ms_xbox-Icon"><g id="xbox"><circle id="vector" cx="24" cy="24" r="21" fill="url(#paint0_radial_94_20597)" opacity="0.852"/><path id="vector_2" fill="url(#paint1_linear_94_20597)" d="M10.1271 39.7999C10.0984 39.779 10.069 39.7524 10.0397 39.7201C9.49608 39.2256 8.61068 38.4456 7.68543 37.2667C6.88635 35.5334 7.3393 32.622 9.30578 28.5113C12.0804 22.7114 16.5197 16.8226 18.3398 14.7338C17.8219 14.156 16.2178 12.5738 13.9449 10.8672C11.6719 9.16052 10.0161 8.98571 9.43896 9.08941C9.97168 8.51165 11.2147 7.42278 12.2579 6.68946C15.4898 5.08949 21.4621 7.79314 24.0221 9.33385V19.9337C17.4963 24.9558 11.4589 32.7112 10.238 35.7334C9.30627 38.04 9.67461 39.3192 10.0397 39.7201C10.0699 39.7476 10.099 39.7742 10.1271 39.7999Z"/><path id="vector_3" fill="url(#paint2_linear_94_20597)" d="M10.1271 39.7995C10.0984 39.7785 10.0691 39.7519 10.0397 39.7197C9.49607 39.2252 8.61067 38.4451 7.68543 37.2662C6.88635 35.5329 7.3393 32.6215 9.30578 28.5108C12.527 21.7773 18.3398 14.7333 18.3398 14.7333C18.3398 14.7333 19.3777 17.3106 21.7333 21.7773C15.6666 27.155 11.4589 32.7107 10.238 35.7329C9.30627 38.0395 9.67462 39.3188 10.0397 39.7197C10.0699 39.7472 10.099 39.7737 10.1271 39.7995Z"/><path id="vector_4" fill="url(#paint3_linear_94_20597)" d="M37.9174 39.7999C37.946 39.779 37.9754 39.7524 38.0048 39.7201C38.5484 39.2256 39.4338 38.4456 40.359 37.2667C41.1581 35.5334 40.7051 32.622 38.7387 28.5113C35.9641 22.7114 31.5247 16.8226 29.7046 14.7338C30.2225 14.156 31.8266 12.5738 34.0996 10.8672C36.3725 9.16052 38.0284 8.98571 38.6055 9.08941C38.0728 8.51165 36.8297 7.42278 35.7865 6.68946C32.5547 5.08949 26.5823 7.79314 24.0223 9.33385V19.9337C30.5481 24.9558 36.5856 32.7112 37.8064 35.7334C38.7382 38.04 38.3698 39.3192 38.0048 39.7201C37.9746 39.7476 37.9454 39.7742 37.9174 39.7999Z"/><path id="vector_5" fill="url(#paint4_linear_94_20597)" d="M37.9174 39.7995C37.946 39.7785 37.9754 39.7519 38.0048 39.7197C38.5484 39.2252 39.4338 38.4451 40.359 37.2662C41.1581 35.5329 40.7051 32.6215 38.7386 28.5108C35.5174 21.7773 29.7046 14.7333 29.7046 14.7333C29.7046 14.7333 28.6667 17.3106 26.3112 21.7773C32.3778 27.155 36.5856 32.7107 37.8064 35.7329C38.7382 38.0395 38.3698 39.3188 38.0048 39.7197C37.9746 39.7472 37.9454 39.7737 37.9174 39.7995Z"/></g></g><defs><radialGradient id="paint0_radial_94_20597" cx="0" cy="0" r="1" gradientTransform="rotate(90.055 1.135 22.864) scale(23.25)" gradientUnits="userSpaceOnUse"><stop stop-color="#FAFAFA"/><stop offset="0.499976" stop-color="#EFEFEF"/><stop offset="0.828794" stop-color="#C0BEC0"/><stop offset="1" stop-color="#879288"/></radialGradient><linearGradient id="paint1_linear_94_20597" x1="19.4888" x2="19.8444" y1="7.08884" y2="19.1777" gradientUnits="userSpaceOnUse"><stop stop-color="#008B00"/><stop offset="1" stop-color="#6CC329"/></linearGradient><linearGradient id="paint2_linear_94_20597" x1="15.2221" x2="19.311" y1="18.9999" y2="24.5999" gradientUnits="userSpaceOnUse"><stop stop-color="#008C00"/><stop offset="1" stop-color="#48BF21"/></linearGradient><linearGradient id="paint3_linear_94_20597" x1="28.5556" x2="28.2001" y1="7.08884" y2="19.1777" gradientUnits="userSpaceOnUse"><stop stop-color="#008B00"/><stop offset="1" stop-color="#6CC329"/></linearGradient><linearGradient id="paint4_linear_94_20597" x1="32.8223" x2="28.7334" y1="18.9999" y2="24.5999" gradientUnits="userSpaceOnUse"><stop stop-color="#008C00"/><stop offset="1" stop-color="#48BF21"/></linearGradient></defs></svg>

<svg xmlns="http://www.w3.org/2000/svg" fill="none" aria-hidden="true" viewBox="0 0 48 48"><circle cx="24" cy="24" r="21" fill="url(#a)" opacity=".852"/><path fill="url(#b)" d="M10.127 39.8a.592.592 0 0 1-.087-.08c-.544-.494-1.43-1.274-2.355-2.453-.799-1.734-.346-4.645 1.62-8.756 2.775-5.8 7.215-11.688 9.035-13.777-.518-.578-2.122-2.16-4.395-3.867-2.273-1.706-3.929-1.881-4.506-1.778.533-.577 1.776-1.666 2.819-2.4 3.232-1.6 9.204 1.104 11.764 2.645v10.6c-6.526 5.022-12.563 12.777-13.784 15.8-.932 2.306-.563 3.585-.198 3.986l.087.08Z"/><path fill="url(#c)" d="M10.127 39.8a.604.604 0 0 1-.087-.08c-.544-.495-1.43-1.275-2.355-2.454-.799-1.733-.346-4.645 1.62-8.755 3.222-6.734 9.035-13.778 9.035-13.778s1.038 2.578 3.393 7.044c-6.066 5.378-10.274 10.934-11.495 13.956-.932 2.306-.563 3.586-.198 3.987l.087.08Z"/><path fill="url(#d)" d="M37.917 39.8a.587.587 0 0 0 .088-.08c.543-.494 1.429-1.274 2.354-2.453.799-1.734.346-4.645-1.62-8.756-2.775-5.8-7.214-11.688-9.034-13.777.518-.578 2.122-2.16 4.395-3.867 2.272-1.706 3.928-1.881 4.505-1.778-.532-.577-1.775-1.666-2.819-2.4-3.231-1.6-9.204 1.104-11.764 2.645v10.6c6.526 5.022 12.564 12.777 13.784 15.8.932 2.306.564 3.585.199 3.986l-.088.08Z"/><path fill="url(#e)" d="M37.917 39.8a.599.599 0 0 0 .088-.08c.543-.495 1.429-1.275 2.354-2.454.799-1.733.346-4.645-1.62-8.755-3.222-6.734-9.034-13.778-9.034-13.778s-1.038 2.578-3.394 7.044c6.067 5.378 10.275 10.934 11.495 13.956.932 2.306.564 3.586.199 3.987l-.088.08Z"/><defs><linearGradient id="b" x1="19.489" x2="19.844" y1="7.089" y2="19.178" gradientUnits="userSpaceOnUse"><stop stop-color="#008B00"/><stop offset="1" stop-color="#6CC329"/></linearGradient><linearGradient id="c" x1="15.222" x2="19.311" y1="19" y2="24.6" gradientUnits="userSpaceOnUse"><stop stop-color="#008C00"/><stop offset="1" stop-color="#48BF21"/></linearGradient><linearGradient id="d" x1="28.556" x2="28.2" y1="7.089" y2="19.178" gradientUnits="userSpaceOnUse"><stop stop-color="#008B00"/><stop offset="1" stop-color="#6CC329"/></linearGradient><linearGradient id="e" x1="32.822" x2="28.733" y1="19" y2="24.6" gradientUnits="userSpaceOnUse"><stop stop-color="#008C00"/><stop offset="1" stop-color="#48BF21"/></linearGradient><radialGradient id="a" cx="0" cy="0" r="1" gradientTransform="rotate(90.055 1.135 22.864) scale(23.25)" gradientUnits="userSpaceOnUse"><stop stop-color="#FAFAFA"/><stop offset=".5" stop-color="#EFEFEF"/><stop offset=".829" stop-color="#C0BEC0"/><stop offset="1" stop-color="#879288"/></radialGradient></defs></svg>
